X:2106 
T:T'eh mysh ny biljyn reurey 
C:Tom Kermode, Bradda
O:Traditional
S:Tom Kermode, Bradda 
Z:Clague collection
N:Title given as 'Lhig da'n slane seihll cur clashtyn' in JFSS 
B:Kiaull Vannin #106 
M:4/4 
L:1/4
Q:70 
K:G 
d|B A/G/ B d|g2 g G|c d e/d/ c/B/|A3 d|B A/G/ B d|g2 e g|f f e c|d3 d| 
B A/G/ B d|g2 g G|c d e/d/ c/B/|A3 d|B A/G/ B d|g2 e c|B B A A|G3|| 

